X:1
T:Title
L:1/8
M:4/4
I:linebreak $
K:D
V:1 treble nm="Voice"
V:1
"A" eceg a2 gg |"G" dgBg dgBg | dgBg"A" e2 ef |"A" eceg a2 gg |"G" dgBg dgBg |[M:2/4]"A" e2 ef :: %6
[M:4/4]"A" ecAc ecAc |"G" B2 GB DGBG | dGBd"A" e2 ef |[M:2/4] ec Ac |[M:4/4]"A" ecAc"G" BBGB | %11
"A" A2 Ac e2 ef ::"A" ecAc ecAc |1"G" B2 GB DGBG | dGBd"A" e2 ef :|2"G" BBGB"A" A2 ef |] %16
